X: 22946
T: Larry's Favourite
R: reel
M: 4/4
K: Adorian
|:AG|EAAG A2Bd|eA3 BAGE|G2DG EGDG|GABd edBG|
EAAG A2Bd|eA3 BAGE|GABd gedB|AcBG A2:|
|:Bd|eaag egfg|eA3 edBe|d2BG AGEF|GABd g2fg|
eaag egfg|eA3 BAGE|GABd gedB|AcBG A2:|
|:Bd|eaa^g a2=ga|bg3 abge|dggf g2eg|dB3 GABd|
eaa^g a2=ga|bg3 abge|dB3 gedB|AcBG A2:|

